icons/outline/device-phone-mobile.svg

<svg width="24" height="24" viewBox="0 0 24 24" fill="none" xmlns="http://www.w3.org/2000/svg">
<path d="M10.5 1.5H8.25C7.00736 1.5 6 2.50736 6 3.75V20.25C6 21.4926 7.00736 22.5 8.25 22.5H15.75C16.9926 22.5 18 21.4926 18 20.25V3.75C18 2.50736 16.9926 1.5 15.75 1.5H13.5M10.5 1.5V3H13.5V1.5M10.5 1.5H13.5M10.5 20.25H13.5" stroke="#0F172A" stroke-width="1.5" stroke-linecap="round" stroke-linejoin="round"/>
</svg>

<svg xmlns="http://www.w3.org/2000/svg" fill="none" viewBox="0 0 24 24" stroke-width="1.5" stroke="currentColor" aria-hidden="true" data-slot="icon">
  <path stroke-linecap="round" stroke-linejoin="round" d="M10.5 1.5H8.25A2.25 2.25 0 0 0 6 3.75v16.5a2.25 2.25 0 0 0 2.25 2.25h7.5A2.25 2.25 0 0 0 18 20.25V3.75a2.25 2.25 0 0 0-2.25-2.25H13.5m-3 0V3h3V1.5m-3 0h3m-3 18.75h3"/>
</svg>
